icon/lg/stylis.svg

<?xml version="1.0" encoding="UTF-8"?>
<svg viewBox="0 0 512 201" version="1.1" xmlns="http://www.w3.org/2000/svg" xmlns:xlink="http://www.w3.org/1999/xlink" preserveAspectRatio="xMidYMid" height="1em" width="1em">
  <defs>
    <linearGradient x1="47.1649%" y1="1.3158%" x2="47.1649%" y2="81.5789%" id="stylis-linearGradient-1">
      <stop stop-color="#745DC0" offset="0%"/>
      <stop stop-color="#5497D8" offset="100%"/>
    </linearGradient>
  </defs>
  <g stroke="none" stroke-width="1" fill="none" fill-rule="evenodd">
    <path d="M374.762887,163.628866 L457.896907,163.628866 C463.727373,163.628866 472.554623,155.701575 475.051546,150.43299 L492.04414,113.849006 C497.96381,100.529353 489.627447,89.7319588 475.051546,89.7319588 L448.659794,89.7319588 C445.744561,89.7319588 443.381443,87.9594887 443.381443,85.7731959 C443.381443,83.5869031 445.744561,81.814433 448.659794,81.814433 L493.525773,81.814433 L512,42.2268041 L435.463918,42.2268041 L406.43299,100.28866 C400.43388,113.572685 405.052965,123.958895 419.628866,123.958895 L443.381443,123.958895 L443.381443,124.041237 C446.296676,124.041237 448.659794,125.813707 448.659794,128 C448.659794,130.186293 446.296676,131.958763 443.381443,131.958763 L390.597938,131.958763 L374.762887,163.628866 Z M172.865979,171.546392 C164.849221,171.546392 158.350515,178.045097 158.350515,186.061856 C158.350515,194.078614 164.849221,200.57732 172.865979,200.57732 L240.164948,200.57732 L253.360825,171.546392 L172.865979,171.546392 Z M224.329897,42.2268041 L186.516058,124.087951 C185.293592,126.734515 185.548008,130.888049 187.0848,133.365443 L203.073452,159.143324 C204.609979,161.620718 208.218788,163.628866 211.134021,163.628866 L258.639175,163.628866 L316.701031,42.2268041 L285.030928,42.2268041 L245.443299,126.680412 L216.412371,126.680412 L256,42.2268041 L224.329897,42.2268041 Z M369.484536,76.5360825 L327.257732,163.628866 L358.927835,163.628866 L401.154639,76.5360825 L369.484536,76.5360825 Z M385.319588,42.2268041 L372.123711,68.6185567 L393.250309,68.6185567 C399.080775,68.6185567 405.918878,64.390334 408.524272,59.174532 L412.272429,51.6708289 C414.877823,46.4550268 412.263456,42.2268041 406.433254,42.2268041 L385.319588,42.2268041 Z M0,163.628866 L77.8556701,163.628866 C83.6861361,163.628866 92.5133856,155.701575 95.0103093,150.43299 L112.002903,113.849006 C117.922573,100.529353 109.58621,89.7319588 95.0103093,89.7319588 L68.6185567,89.7319588 C65.7033237,89.7319588 63.3402062,87.9594887 63.3402062,85.7731959 C63.3402062,83.5869031 65.7033237,81.814433 68.6185567,81.814433 L113.484536,81.814433 L131.958763,42.2268041 L55.4226804,42.2268041 L26.3917526,100.28866 C20.3926433,113.572685 25.0117278,123.958895 39.5876289,123.958895 L63.3402062,123.958895 L63.3402062,124.041237 C66.2554392,124.041237 68.6185567,125.813707 68.6185567,128 C68.6185567,130.186293 66.2554392,131.958763 63.3402062,131.958763 L15.8350515,131.958763 L0,163.628866 Z M353.649485,0 L277.113402,163.628866 L311.42268,163.628866 L387.958763,0 L353.649485,0 Z M163.628866,0 L123.077938,91.7773196 C127.648198,96.1683794 128.741344,105.878433 125.198779,113.849006 L100.28866,163.628866 L158.350515,163.628866 L168.907216,137.237113 C171.514458,132.022367 170.77892,126.680412 164.948454,126.680412 L142.515464,126.680412 L163.628866,81.814433 L187.381443,81.814433 C190.296676,81.814433 191.427299,79.1778969 192.659794,76.5360825 L208.494845,42.2268041 L179.463918,42.2268041 L197.938144,0 L163.628866,0 Z" fill="url(#stylis-linearGradient-1)"/>
  </g>
</svg>

<svg width="512" height="201" xmlns="http://www.w3.org/2000/svg" preserveAspectRatio="xMidYMid"><defs><linearGradient x1="47.165%" y1="1.316%" x2="47.165%" y2="81.579%" id="a"><stop stop-color="#745DC0" offset="0%"/><stop stop-color="#5497D8" offset="100%"/></linearGradient></defs><path d="M374.763 163.629h83.134c5.83 0 14.658-7.927 17.155-13.196l16.992-36.584c5.92-13.32-2.417-24.117-16.992-24.117H448.66c-2.915 0-5.279-1.773-5.279-3.959s2.364-3.959 5.279-3.959h44.866L512 42.227h-76.536l-29.031 58.062c-6 13.284-1.38 23.67 13.196 23.67h23.752v.082c2.916 0 5.279 1.773 5.279 3.959s-2.363 3.959-5.279 3.959h-52.783l-15.835 31.67Zm-201.897 7.917c-8.017 0-14.515 6.5-14.515 14.516 0 8.017 6.498 14.515 14.515 14.515h67.299l13.196-29.03h-80.495Zm51.464-129.32-37.814 81.862c-1.222 2.647-.968 6.8.569 9.277l15.988 25.778c1.537 2.478 5.146 4.486 8.061 4.486h47.505l58.062-121.402h-31.67l-39.588 84.453h-29.03L256 42.227h-31.67Zm145.155 34.31-42.227 87.093h31.67l42.227-87.093h-31.67Zm15.835-34.31L372.124 68.62h21.126c5.83 0 12.669-4.229 15.274-9.444l3.748-7.504c2.606-5.216-.009-9.444-5.839-9.444H385.32ZM0 163.63h77.856c5.83 0 14.657-7.927 17.154-13.196l16.993-36.584c5.92-13.32-2.417-24.117-16.993-24.117H68.62c-2.916 0-5.279-1.773-5.279-3.959s2.363-3.959 5.279-3.959h44.866l18.474-39.587H55.423l-29.031 58.062c-6 13.284-1.38 23.67 13.196 23.67H63.34v.082c2.915 0 5.279 1.773 5.279 3.959s-2.364 3.959-5.279 3.959H15.835L0 163.629ZM353.65 0l-76.537 163.629h34.31L387.959 0h-34.31ZM163.628 0l-40.551 91.777c4.57 4.391 5.663 14.101 2.12 22.072l-24.91 49.78h58.063l10.556-26.392c2.607-5.215 1.872-10.557-3.959-10.557h-22.433l21.114-44.866h23.752c2.916 0 4.046-2.636 5.279-5.278l15.835-34.31h-29.031L197.938 0h-34.31Z" fill="url(#a)" fill-rule="evenodd"/></svg>
